!!!OTL: Der Maedchenmoerder (Halewijn - Ulinger).
!!!OTL-incipit: Es ritt ein Ritter wohl ueber ein Rain,
!!!ARE: Europa, Mitteleuropa, Deutschland / Tschechoslowakei, Boehmen
!!!YOR: 2, S. 112
!!    1914 aufgezeichnet
!!!SCT: Q0041T
!!!YEM: Copyright 1995, estate of Helmut Schaffrath.
**kern	**text
*ICvox	*
*M6/8	*
*k[f#]	*
*G:	*
!LO:TX:a:t=Böhmen 1914	!
{8g	Es
=1	=1
4b	ritt
8g	ein
8g	Ritter
8.g	.
16b	wohl
=2	=2
8.a	über
16f#	.
8f#	ein
8f#	Rain,
8r}	.
{8a	er
=3	=3
4g	ſang
8e	ein
4e	ſchön-
8g	-nes
=4	=4
4f#	neues
8d	.
8d	Lied
8r}	.
{8d	er
=5	=5
8g	tua-
8f#	-te
8e	das
8d	Lie-
8c	-de-
8B	-lein
=6	=6
(4d	ſin-
8cc)	.
4b}	-gen
{8a	ein
=7	=7
8g	Lie-
8g	-dl
8g	mit
8a	drei-
8a	-er-
8cc	-lei
=8	=8
(4b	Stim-
8a)	.
8g	-men.
8r}	.
{8d	er
=9	=9
8g	tua-
8f#	-te
8e	das
8d	Lie-
8c	-de-
8B	-lein
=10	=10
(4d	ſin-
8cc)	.
4b}	-gen,
{8a	ein
=11	=11
8g	Lie-
8g	-dl
8g	mit
8a	drei-
8a	-er-
8cc	-lei
=12	=12
(4b	Stimm-
8a)	.
8g	-men.
8r}	.
==	==
!!!AGN: Ballade, Verfuehrung, Mord, Mordversuch bzw. Rache
!!!ONB: ESAC (Essen Associative Code) Database: BALLADE
!!!AMT: compound duple
!!!AIN: vox
!!!EED: Helmut Schaffrath
!!!EEV: 1.0
!!!source: Deutsche Volkslieder mit ihren Melodien. Herausgegeben vom Deutschen Volksliedarchiv. Zweiter Band Balladen. Berlin 1939.
!!!page: 112
!!!ENC: Anna Maria Matuszewska
!!!EEV: 2025/02/17
*-	*-
